src/assets/svg/youtubeMusic.svg

<svg width="36" height="36" viewBox="0 0 40 40"><rect width="40" height="40" fill="black" fill-opacity="0"></rect><rect width="40" height="40" fill="black" fill-opacity="0"></rect><path d="M20 40C31.0457 40 40 31.0457 40 20C40 8.9543 31.0457 0 20 0C8.9543 0 0 8.9543 0 20C0 31.0457 8.9543 40 20 40Z" fill="#FF0000"></path><rect width="20.9091" height="20.9091" fill="black" fill-opacity="0" transform="translate(9.54541 9.54541)"></rect><path d="M20 10.4636C25.259 10.4636 29.5363 14.7409 29.5363 20C29.5363 25.259 25.259 29.5363 20 29.5363C14.7409 29.5363 10.4636 25.259 10.4636 20C10.4636 14.7409 14.7409 10.4636 20 10.4636ZM20 9.54541C14.225 9.54541 9.54541 14.225 9.54541 20C9.54541 25.775 14.225 30.4545 20 30.4545C25.775 30.4545 30.4545 25.775 30.4545 20C30.4545 14.225 25.775 9.54541 20 9.54541Z" fill="white"></path><path d="M16.3636 25.2275L25.2273 19.7729L16.3636 14.7729V25.2275Z" fill="white"></path></svg>

<?xml version="1.0" encoding="UTF-8" standalone="no"?>
<svg width="36" xmlns="http://www.w3.org/2000/svg" viewBox="0 0 40 40" height="36">
 <rect fill-opacity="0" width="40" height="40"/>
 <rect fill-opacity="0" width="40" height="40"/>
 <path d="m20 40c11.046 0 20-8.954 20-20s-8.954-20-20-20-20 8.9543-20 20 8.9543 20 20 20z" fill="#f00"/>
 <rect fill-opacity="0" width="20.909" transform="translate(9.5454 9.5454)" height="20.909"/>
 <path d="m20 10.464c5.259 0 9.536 4.277 9.536 9.536s-4.277 9.536-9.536 9.536-9.536-4.277-9.536-9.536 4.277-9.536 9.536-9.536zm0-0.9186c-5.775 0-10.455 4.6796-10.455 10.455 0.0004 5.775 4.68 10.454 10.455 10.454s10.454-4.679 10.454-10.454-4.679-10.455-10.454-10.455z" fill="#fff"/>
 <path d="m16.364 25.228l8.863-5.455-8.863-5v10.455z" fill="#fff"/>
</svg>
